src/assets/images/logo-tiendabox.svg

<?xml version="1.0" encoding="UTF-8" standalone="no"?><!DOCTYPE svg PUBLIC "-//W3C//DTD SVG 1.1//EN" "http://www.w3.org/Graphics/SVG/1.1/DTD/svg11.dtd"><svg width="100%" height="100%" viewBox="0 0 159 58" version="1.1" xmlns="http://www.w3.org/2000/svg" xmlns:xlink="http://www.w3.org/1999/xlink" xml:space="preserve" xmlns:serif="http://www.serif.com/" style="fill-rule:evenodd;clip-rule:evenodd;stroke-linejoin:round;stroke-miterlimit:2;"><path d="M31.515,23.234l0,5.104l-4.216,0l-0,12.206l-5.771,0l0,-12.206l-4.216,0l-0,-5.104l14.203,-0Z" style="fill:#00b2a6;fill-rule:nonzero;"/><path d="M38.394,40.544l-5.326,0l-0,-11.763l5.326,0l0,11.763Zm-5.327,-17.31l5.327,-0l-0,4.216l-5.327,0l0,-4.216Z" style="fill:#00b2a6;fill-rule:nonzero;"/><path d="M47.382,33.664c-0,-0.887 -0.444,-1.331 -0.999,-1.331c-0.555,-0 -0.999,0.444 -0.999,1.331l1.998,-0Zm5.215,0.999l0,1.11l-7.102,-0c0,-0 0.222,1.22 1.998,1.22c1.109,0 1.998,-0.887 1.998,-0.887l1.886,2.995c-0,0 -1.665,1.776 -4.661,1.776c-3.773,0 -6.547,-2.774 -6.547,-6.214c-0,-3.44 2.774,-6.214 6.214,-6.214c3.44,0 6.214,2.774 6.214,6.214" style="fill:#00b2a6;fill-rule:nonzero;"/><path d="M66.578,34.33l0,6.214l-5.327,0l-0,-6.214c-0,-0.888 -0.443,-1.332 -0.887,-1.332c-0.444,0 -0.888,0.444 -0.888,1.332l-0,6.214l-5.327,0l0,-11.762l5.105,-0l0.444,1.331c-0,0 0.888,-1.664 2.885,-1.664c2.219,-0 3.995,1.775 3.995,5.881" style="fill:#00b2a6;fill-rule:nonzero;"/><path d="M74.899,36.328c0.666,-0 1.221,-0.555 1.221,-1.665c-0,-1.109 -0.555,-1.664 -1.221,-1.664c-0.666,-0 -1.221,0.555 -1.221,1.664c0,1.11 0.555,1.665 1.221,1.665m-2.109,-7.879c2.22,0 3.108,1.664 3.108,1.664l-0,-6.879l5.327,-0l-0,17.31l-4.883,0l-0.444,-1.331c-0,0 -0.888,1.664 -3.108,1.664c-2.441,0 -4.66,-2.219 -4.66,-6.214c-0,-3.995 2.219,-6.214 4.66,-6.214" style="fill:#00b2a6;fill-rule:nonzero;"/><path d="M89.879,35.44c-1.221,0 -1.776,0.554 -1.776,1.22c-0,0.333 0.333,0.667 0.667,0.667c0.554,0 1.109,-0.556 1.109,-1.887m5.326,-0.777l0,5.882l-5.104,-0l-0.444,-1.332c-0,-0 -0.887,1.665 -2.886,1.665c-2.441,-0 -3.995,-1.554 -3.995,-3.663c0,-2.108 1.554,-3.662 5.327,-3.662l1.776,0c-0,0 -0.222,-1.221 -1.997,-1.221c-1.111,0 -1.998,0.889 -1.998,0.889l-1.887,-2.996c0,-0 1.665,-1.776 4.661,-1.776c3.772,0 6.547,2.775 6.547,6.214" style="fill:#00b2a6;fill-rule:nonzero;"/><path d="M46.376,23.234c0,1.983 1.607,3.589 3.59,3.589c1.983,0 3.59,-1.606 3.59,-3.589l0.737,-7.131l-5.706,0l-2.211,7.131Z" style="fill:#00b2a6;fill-rule:nonzero;"/><path d="M65.705,16.103l-5.706,0l0.737,7.131c0,1.982 1.608,3.589 3.591,3.589c1.982,0 3.589,-1.607 3.589,-3.589l-2.211,-7.131Z" style="fill:#00b2a6;fill-rule:nonzero;"/><path d="M39.196,23.234c0,1.249 1.607,3.589 3.59,3.589c1.983,0 3.59,-2.34 3.59,-3.589l2.211,-7.131l-5.705,0l-3.686,7.131Z" style="fill:#293f54;fill-rule:nonzero;"/><path d="M54.293,16.103l-0.737,7.131c-0,1.249 1.607,3.589 3.59,3.589c1.982,0 3.59,-2.34 3.59,-3.589l-0.737,-7.131l-5.706,0Z" style="fill:#293f54;fill-rule:nonzero;"/><path d="M71.411,16.103l-5.706,0l2.211,7.131c-0,1.249 1.607,3.589 3.59,3.589c1.983,0 3.59,-2.34 3.59,-3.589l-3.685,-7.131Z" style="fill:#293f54;fill-rule:nonzero;"/><path d="M102.219,33.815l-0,2.283l1.689,-0c0.444,-0 0.805,-0.099 1.082,-0.298c0.278,-0.197 0.416,-0.487 0.416,-0.868c-0,-0.222 -0.06,-0.404 -0.178,-0.546c-0.119,-0.144 -0.266,-0.258 -0.44,-0.345c-0.175,-0.087 -0.362,-0.147 -0.558,-0.179c-0.2,-0.031 -0.385,-0.047 -0.559,-0.047l-1.452,-0Zm-0,-5.707l-0,2.068l1.522,-0c0.396,-0 0.721,-0.091 0.975,-0.273c0.254,-0.182 0.381,-0.463 0.381,-0.844c0,-0.317 -0.135,-0.554 -0.405,-0.713c-0.27,-0.159 -0.625,-0.238 -1.069,-0.238l-1.404,0Zm5.732,3.686c0.396,0.096 0.784,0.249 1.165,0.464c0.381,0.214 0.721,0.483 1.022,0.808c0.302,0.325 0.539,0.702 0.713,1.129c0.174,0.428 0.262,0.904 0.262,1.427c0,0.92 -0.187,1.692 -0.559,2.319c-0.372,0.627 -0.864,1.134 -1.474,1.521c-0.611,0.389 -1.309,0.666 -2.093,0.833c-0.784,0.166 -1.59,0.25 -2.413,0.25l-7.633,-0l0,-16.837l6.919,-0c0.682,-0 1.408,0.052 2.176,0.155c0.769,0.104 1.478,0.31 2.128,0.618c0.65,0.31 1.19,0.761 1.618,1.356c0.428,0.594 0.64,1.375 0.64,2.342c0,0.904 -0.225,1.65 -0.677,2.235c-0.451,0.587 -1.049,1.023 -1.794,1.308l0,0.072Z" style="fill:#293f54;fill-rule:nonzero;"/><path d="M118.971,32.198c-0.603,0 -1.09,0.205 -1.463,0.618c-0.372,0.413 -0.558,0.897 -0.558,1.451c-0,0.586 0.19,1.086 0.57,1.498c0.381,0.413 0.872,0.618 1.474,0.618c0.602,0 1.094,-0.205 1.475,-0.618c0.381,-0.412 0.571,-0.912 0.571,-1.498c0,-0.554 -0.195,-1.038 -0.583,-1.451c-0.388,-0.413 -0.883,-0.618 -1.486,-0.618m7.157,2.045c0,1.078 -0.194,2.037 -0.583,2.877c-0.388,0.841 -0.91,1.55 -1.569,2.128c-0.657,0.579 -1.419,1.02 -2.283,1.32c-0.863,0.301 -1.771,0.452 -2.722,0.452c-0.935,-0 -1.835,-0.151 -2.699,-0.452c-0.864,-0.3 -1.622,-0.741 -2.271,-1.32c-0.65,-0.578 -1.17,-1.287 -1.558,-2.128c-0.389,-0.84 -0.581,-1.799 -0.581,-2.877c-0,-1.061 0.192,-2.009 0.581,-2.841c0.388,-0.833 0.908,-1.535 1.558,-2.105c0.649,-0.571 1.407,-1.003 2.271,-1.296c0.864,-0.293 1.764,-0.441 2.699,-0.441c0.951,0 1.859,0.148 2.722,0.441c0.864,0.293 1.626,0.725 2.283,1.296c0.659,0.57 1.181,1.272 1.569,2.105c0.389,0.832 0.583,1.78 0.583,2.841" style="fill:#293f54;fill-rule:nonzero;"/><path d="M132.713,37.714l-2.044,2.83l-6.183,-0l4.827,-6.42l-4.494,-6.087l6.23,-0l1.807,2.615l1.783,-2.615l6.041,-0l-4.494,6.087l4.731,6.42l-6.278,-0l-1.926,-2.83Z" style="fill:#293f54;fill-rule:nonzero;"/></svg>

<?xml version="1.0" encoding="UTF-8" standalone="no"?>
<!DOCTYPE svg PUBLIC "-//W3C//DTD SVG 1.1//EN" "http://www.w3.org/Graphics/SVG/1.1/DTD/svg11.dtd">
<svg width="100%" height="100%" viewBox="0 0 124 25" version="1.1" xmlns="http://www.w3.org/2000/svg" xmlns:xlink="http://www.w3.org/1999/xlink" xml:space="preserve" xmlns:serif="http://www.serif.com/" style="fill-rule:evenodd;clip-rule:evenodd;stroke-linejoin:round;stroke-miterlimit:2;">
    <g transform="matrix(1,0,0,1,-17.312,-16.103)">
        <path d="M31.515,23.234L31.515,28.338L27.299,28.338L27.299,40.544L21.528,40.544L21.528,28.338L17.312,28.338L17.312,23.234L31.515,23.234Z" style="fill:rgb(0,178,166);fill-rule:nonzero;"/>
    </g>
    <g transform="matrix(1,0,0,1,-17.312,-16.103)">
        <path d="M38.394,40.544L33.068,40.544L33.068,28.781L38.394,28.781L38.394,40.544ZM33.067,23.234L38.394,23.234L38.394,27.45L33.067,27.45L33.067,23.234Z" style="fill:rgb(0,178,166);fill-rule:nonzero;"/>
    </g>
    <g transform="matrix(1,0,0,1,-17.312,-16.103)">
        <path d="M47.382,33.664C47.382,32.777 46.938,32.333 46.383,32.333C45.828,32.333 45.384,32.777 45.384,33.664L47.382,33.664ZM52.597,34.663L52.597,35.773L45.495,35.773C45.495,35.773 45.717,36.993 47.493,36.993C48.602,36.993 49.491,36.106 49.491,36.106L51.377,39.101C51.377,39.101 49.712,40.877 46.716,40.877C42.943,40.877 40.169,38.103 40.169,34.663C40.169,31.223 42.943,28.449 46.383,28.449C49.823,28.449 52.597,31.223 52.597,34.663" style="fill:rgb(0,178,166);fill-rule:nonzero;"/>
    </g>
    <g transform="matrix(1,0,0,1,-17.312,-16.103)">
        <path d="M66.578,34.33L66.578,40.544L61.251,40.544L61.251,34.33C61.251,33.442 60.808,32.998 60.364,32.998C59.92,32.998 59.476,33.442 59.476,34.33L59.476,40.544L54.149,40.544L54.149,28.782L59.254,28.782L59.698,30.113C59.698,30.113 60.586,28.449 62.583,28.449C64.802,28.449 66.578,30.224 66.578,34.33" style="fill:rgb(0,178,166);fill-rule:nonzero;"/>
    </g>
    <g transform="matrix(1,0,0,1,-17.312,-16.103)">
        <path d="M74.899,36.328C75.565,36.328 76.12,35.773 76.12,34.663C76.12,33.554 75.565,32.999 74.899,32.999C74.233,32.999 73.678,33.554 73.678,34.663C73.678,35.773 74.233,36.328 74.899,36.328M72.79,28.449C75.01,28.449 75.898,30.113 75.898,30.113L75.898,23.234L81.225,23.234L81.225,40.544L76.342,40.544L75.898,39.213C75.898,39.213 75.01,40.877 72.79,40.877C70.349,40.877 68.13,38.658 68.13,34.663C68.13,30.668 70.349,28.449 72.79,28.449" style="fill:rgb(0,178,166);fill-rule:nonzero;"/>
    </g>
    <g transform="matrix(1,0,0,1,-17.312,-16.103)">
        <path d="M89.879,35.44C88.658,35.44 88.103,35.994 88.103,36.66C88.103,36.993 88.436,37.327 88.77,37.327C89.324,37.327 89.879,36.771 89.879,35.44M95.205,34.663L95.205,40.545L90.101,40.545L89.657,39.213C89.657,39.213 88.77,40.878 86.771,40.878C84.33,40.878 82.776,39.324 82.776,37.215C82.776,35.107 84.33,33.553 88.103,33.553L89.879,33.553C89.879,33.553 89.657,32.332 87.882,32.332C86.771,32.332 85.884,33.221 85.884,33.221L83.997,30.225C83.997,30.225 85.662,28.449 88.658,28.449C92.43,28.449 95.205,31.224 95.205,34.663" style="fill:rgb(0,178,166);fill-rule:nonzero;"/>
    </g>
    <g transform="matrix(1,0,0,1,-17.312,-16.103)">
        <path d="M46.376,23.234C46.376,25.217 47.983,26.823 49.966,26.823C51.949,26.823 53.556,25.217 53.556,23.234L54.293,16.103L48.587,16.103L46.376,23.234Z" style="fill:rgb(0,178,166);fill-rule:nonzero;"/>
    </g>
    <g transform="matrix(1,0,0,1,-17.312,-16.103)">
        <path d="M65.705,16.103L59.999,16.103L60.736,23.234C60.736,25.216 62.344,26.823 64.327,26.823C66.309,26.823 67.916,25.216 67.916,23.234L65.705,16.103Z" style="fill:rgb(0,178,166);fill-rule:nonzero;"/>
    </g>
    <g transform="matrix(1,0,0,1,-17.312,-16.103)">
        <path d="M39.196,23.234C39.196,24.483 40.803,26.823 42.786,26.823C44.769,26.823 46.376,24.483 46.376,23.234L48.587,16.103L42.882,16.103L39.196,23.234Z" style="fill:rgb(41,63,84);fill-rule:nonzero;"/>
    </g>
    <g transform="matrix(1,0,0,1,-17.312,-16.103)">
        <path d="M54.293,16.103L53.556,23.234C53.556,24.483 55.163,26.823 57.146,26.823C59.128,26.823 60.736,24.483 60.736,23.234L59.999,16.103L54.293,16.103Z" style="fill:rgb(41,63,84);fill-rule:nonzero;"/>
    </g>
    <g transform="matrix(1,0,0,1,-17.312,-16.103)">
        <path d="M71.411,16.103L65.705,16.103L67.916,23.234C67.916,24.483 69.523,26.823 71.506,26.823C73.489,26.823 75.096,24.483 75.096,23.234L71.411,16.103Z" style="fill:rgb(41,63,84);fill-rule:nonzero;"/>
    </g>
    <g transform="matrix(1,0,0,1,-17.312,-16.103)">
        <path d="M102.219,33.815L102.219,36.098L103.908,36.098C104.352,36.098 104.713,35.999 104.99,35.8C105.268,35.603 105.406,35.313 105.406,34.932C105.406,34.71 105.346,34.528 105.228,34.386C105.109,34.242 104.962,34.128 104.788,34.041C104.613,33.954 104.426,33.894 104.23,33.862C104.03,33.831 103.845,33.815 103.671,33.815L102.219,33.815ZM102.219,28.108L102.219,30.176L103.741,30.176C104.137,30.176 104.462,30.085 104.716,29.903C104.97,29.721 105.097,29.44 105.097,29.059C105.097,28.742 104.962,28.505 104.692,28.346C104.422,28.187 104.067,28.108 103.623,28.108L102.219,28.108ZM107.951,31.794C108.347,31.89 108.735,32.043 109.116,32.258C109.497,32.472 109.837,32.741 110.138,33.066C110.44,33.391 110.677,33.768 110.851,34.195C111.025,34.623 111.113,35.099 111.113,35.622C111.113,36.542 110.926,37.314 110.554,37.941C110.182,38.568 109.69,39.075 109.08,39.462C108.469,39.851 107.771,40.128 106.987,40.295C106.203,40.461 105.397,40.545 104.574,40.545L96.941,40.545L96.941,23.708L103.86,23.708C104.542,23.708 105.268,23.76 106.036,23.863C106.805,23.967 107.514,24.173 108.164,24.481C108.814,24.791 109.354,25.242 109.782,25.837C110.21,26.431 110.422,27.212 110.422,28.179C110.422,29.083 110.197,29.829 109.745,30.414C109.294,31.001 108.696,31.437 107.951,31.722L107.951,31.794Z" style="fill:rgb(41,63,84);fill-rule:nonzero;"/>
    </g>
    <g transform="matrix(1,0,0,1,-17.312,-16.103)">
        <path d="M118.971,32.198C118.368,32.198 117.881,32.403 117.508,32.816C117.136,33.229 116.95,33.713 116.95,34.267C116.95,34.853 117.14,35.353 117.52,35.765C117.901,36.178 118.392,36.383 118.994,36.383C119.596,36.383 120.088,36.178 120.469,35.765C120.85,35.353 121.04,34.853 121.04,34.267C121.04,33.713 120.845,33.229 120.457,32.816C120.069,32.403 119.574,32.198 118.971,32.198M126.128,34.243C126.128,35.321 125.934,36.28 125.545,37.12C125.157,37.961 124.635,38.67 123.976,39.248C123.319,39.827 122.557,40.268 121.693,40.568C120.83,40.869 119.922,41.02 118.971,41.02C118.036,41.02 117.136,40.869 116.272,40.568C115.408,40.268 114.65,39.827 114.001,39.248C113.351,38.67 112.831,37.961 112.443,37.12C112.054,36.28 111.862,35.321 111.862,34.243C111.862,33.182 112.054,32.234 112.443,31.402C112.831,30.569 113.351,29.867 114.001,29.297C114.65,28.726 115.408,28.294 116.272,28.001C117.136,27.708 118.036,27.56 118.971,27.56C119.922,27.56 120.83,27.708 121.693,28.001C122.557,28.294 123.319,28.726 123.976,29.297C124.635,29.867 125.157,30.569 125.545,31.402C125.934,32.234 126.128,33.182 126.128,34.243" style="fill:rgb(41,63,84);fill-rule:nonzero;"/>
    </g>
    <g transform="matrix(1,0,0,1,-17.312,-16.103)">
        <path d="M132.713,37.714L130.669,40.544L124.486,40.544L129.313,34.124L124.819,28.037L131.049,28.037L132.856,30.652L134.639,28.037L140.68,28.037L136.186,34.124L140.917,40.544L134.639,40.544L132.713,37.714Z" style="fill:rgb(41,63,84);fill-rule:nonzero;"/>
    </g>
</svg>
